images/pattern.svg

<svg xmlns="http://www.w3.org/2000/svg" width="146.4" height="103.8" viewBox="0 0 146.4 103.8"><path fill="#262626" d="M87.4-29.4L62-14.6v29.5l25.4 14.8L113 14.9v-29.5zM57.2 23.2L31.8 38v29.5l25.4 14.8 25.6-14.8V38zm59.9 0L91.6 38v29.5l25.5 14.8 25.6-14.8V38zm29.2-52.6l-25.5 14.8v29.5l25.5 14.8 25.6-14.8v-29.5zM26-29.4L.5-14.6v29.5L26 29.7l25.6-14.8v-29.5zM87.4 74.2L62 89v29.5l25.4 14.8 25.6-14.8V89zm58.9 0L120.8 89v29.5l25.5 14.8 25.6-14.8V89zM26 74.2L.5 89v29.5L26 133.3l25.6-14.8V89z"/></svg>

<svg id="Layer_1" data-name="Layer 1" xmlns="http://www.w3.org/2000/svg" width="146.4" height="103.8" viewBox="0 0 146.4 103.8"><title>Artboard 1 copy 3</title><path d="M87.4-29.4,62-14.6V14.9L87.4,29.7,113,14.9V-14.6Z" fill="#262626"/><path d="M57.2,23.2,31.8,38V67.5L57.2,82.3,82.8,67.5V38Z" fill="#262626"/><path d="M117.1,23.2,91.6,38V67.5l25.5,14.8,25.6-14.8V38Z" fill="#262626"/><path d="M146.3-29.4,120.8-14.6V14.9l25.5,14.8,25.6-14.8V-14.6Z" fill="#262626"/><path d="M26-29.4.5-14.6V14.9L26,29.7,51.6,14.9V-14.6Z" fill="#262626"/><path d="M87.4,74.2,62,89v29.5l25.4,14.8L113,118.5V89Z" fill="#262626"/><path d="M146.3,74.2,120.8,89v29.5l25.5,14.8,25.6-14.8V89Z" fill="#262626"/><path d="M26,74.2.5,89v29.5L26,133.3l25.6-14.8V89Z" fill="#262626"/></svg>
